usr/share/icons/biglinux-icons-material/scalable/apps/chess.svg

<?xml version="1.0" encoding="UTF-8" standalone="no"?>
<!-- Created with Inkscape (http://www.inkscape.org/) -->

<svg
   width="24"
   height="24"
   viewBox="0 0 6.3499999 6.3500002"
   version="1.1"
   id="svg5"
   xml:space="preserve"
   sodipodi:docname="tagua.svg"
   inkscape:version="1.3 (0e150ed6c4, 2023-07-21)"
   xmlns:inkscape="http://www.inkscape.org/namespaces/inkscape"
   xmlns:sodipodi="http://sodipodi.sourceforge.net/DTD/sodipodi-0.dtd"
   xmlns:xlink="http://www.w3.org/1999/xlink"
   xmlns="http://www.w3.org/2000/svg"
   xmlns:svg="http://www.w3.org/2000/svg"><sodipodi:namedview
     id="namedview7"
     pagecolor="#ffffff"
     bordercolor="#000000"
     borderopacity="0.25"
     inkscape:showpageshadow="2"
     inkscape:pageopacity="0.0"
     inkscape:pagecheckerboard="0"
     inkscape:deskcolor="#d1d1d1"
     inkscape:document-units="mm"
     showgrid="false"
     inkscape:zoom="9.0609641"
     inkscape:cx="-8.7739008"
     inkscape:cy="12.746988"
     inkscape:window-width="2560"
     inkscape:window-height="998"
     inkscape:window-x="0"
     inkscape:window-y="0"
     inkscape:window-maximized="1"
     inkscape:current-layer="svg5" /><defs
     id="defs2"><linearGradient
       inkscape:collect="always"
       id="linearGradient18394"><stop
         style="stop-color:#262532;stop-opacity:1;"
         offset="0"
         id="stop18390" /><stop
         style="stop-color:#b3b3b3;stop-opacity:1"
         offset="1"
         id="stop18392" /></linearGradient><linearGradient
       inkscape:collect="always"
       xlink:href="#linearGradient18394"
       id="linearGradient18396"
       x1="192.40591"
       y1="268.37564"
       x2="194.92839"
       y2="-379.90247"
       gradientUnits="userSpaceOnUse" /><linearGradient
       inkscape:collect="always"
       xlink:href="#linearGradient18394"
       id="linearGradient18857"
       gradientUnits="userSpaceOnUse"
       x1="192.40591"
       y1="268.37564"
       x2="194.92839"
       y2="-379.90247" /></defs><g
     id="g192-1"
     transform="matrix(0.0153286,0,0,0.0153286,0.26458557,0.26457559)"
     style="fill:url(#linearGradient18396);fill-opacity:1;stroke-width:23.0144"
     inkscape:export-filename="g192.svg"
     inkscape:export-xdpi="24.269279"
     inkscape:export-ydpi="24.269279"><path
       d="m 148.375,1.961 c 2.07,0.023 4.047,-0.242 5.93,-0.789 24.785,-1.625 49.566,-1.559 74.343,0.195 22.469,1.75 44.219,6.625 65.25,14.625 34.965,14.395 58.887,39.36 71.774,74.899 7.367,21.398 11.719,43.402 13.051,66.007 1.839,28.391 1.179,56.715 -1.981,84.981 -2.363,19.867 -7.504,38.969 -15.422,57.312 -14.683,31.801 -38.472,53.739 -71.375,65.809 -26.664,9.008 -54.082,13.754 -82.254,14.23 C 176,380.879 144.633,378.508 113.574,372.117 56.414,359.387 21.156,324.535 7.793,267.574 2.125,241.93 -0.445,215.977 0.082,189.707 -0.551,161.773 2.418,134.238 8.98,107.098 22.988,53.84 56.797,20.836 110.414,8.086 122.906,5.035 135.559,2.992 148.375,1.961 Z"
       style="fill:url(#linearGradient18857);fill-opacity:1;fill-rule:evenodd;stroke:none;stroke-width:23.0144"
       id="path194-8" /></g><path
     d="m 2.2524567,1.4552159 a 0.08025674,0.08025674 0 0 0 -0.081076,0.080531 v 0.6986978 a 0.08052971,0.08052971 0 0 0 0.081076,0.080666 h 0.06224 L 2.1713809,2.4584254 2.3146963,2.6017411 2.17179,4.1782129 A 0.28553926,0.28553926 0 0 0 1.8851593,4.464298 c 0,0.052003 0.015697,0.10073 0.039855,0.1433152 L 1.8851593,4.6081609 1.7418439,4.8947918 H 4.608156 L 4.4648401,4.6081609 4.4247117,4.6076132 c 0.024568,-0.042585 0.040264,-0.091312 0.040264,-0.1433152 0,-0.1588762 -0.1284382,-0.2860853 -0.2867676,-0.2860853 L 4.0348935,2.6017409 4.1782091,2.4584252 4.0348935,2.31511 h 0.062786 A 0.07998375,0.07998375 0 0 0 4.1788915,2.234444 V 1.5357457 a 0.07998375,0.07998375 0 0 0 -0.081075,-0.08053 H 3.8915775 V 1.7418476 H 3.6049466 V 1.4552159 H 3.3183151 V 1.7418476 H 3.0316842 V 1.4552159 H 2.7450525 V 1.7418476 H 2.4584216 V 1.4552159"
     fill="#ffffff"
     id="path27994"
     style="stroke-width:3.51334" /></svg>

<svg xmlns="http://www.w3.org/2000/svg" xmlns:xlink="http://www.w3.org/1999/xlink" xml:space="preserve" width="24" height="24" viewBox="0 0 6.35 6.35"><defs><linearGradient id="a"><stop offset="0" style="stop-color:#262532;stop-opacity:1"/><stop offset="1" style="stop-color:#b3b3b3;stop-opacity:1"/></linearGradient><linearGradient xlink:href="#a" id="b" x1="192.406" x2="194.928" y1="268.376" y2="-379.902" gradientUnits="userSpaceOnUse"/><linearGradient xlink:href="#a" id="c" x1="192.406" x2="194.928" y1="268.376" y2="-379.902" gradientUnits="userSpaceOnUse"/></defs><g style="fill:url(#b);fill-opacity:1;stroke-width:23.0144"><path d="M148.375 1.961c2.07.023 4.047-.242 5.93-.789a545.854 545.854 0 0 1 74.343.195c22.469 1.75 44.219 6.625 65.25 14.625 34.965 14.395 58.887 39.36 71.774 74.899a246.354 246.354 0 0 1 13.051 66.007 482.597 482.597 0 0 1-1.981 84.981c-2.363 19.867-7.504 38.969-15.422 57.312-14.683 31.801-38.472 53.739-71.375 65.809-26.664 9.008-54.082 13.754-82.254 14.23-31.691 1.649-63.058-.722-94.117-7.113-57.16-12.73-92.418-47.582-105.781-104.543a328.944 328.944 0 0 1-7.711-77.867 319.253 319.253 0 0 1 8.898-82.609C22.988 53.84 56.797 20.836 110.414 8.086a241.29 241.29 0 0 1 37.961-6.125Z" style="fill:url(#c);fill-opacity:1;fill-rule:evenodd;stroke:none;stroke-width:23.0144" transform="matrix(.01533 0 0 .01533 .265 .265)"/></g><path fill="#fff" d="M2.252 1.455a.08.08 0 0 0-.08.08v.7a.08.08 0 0 0 .08.08h.063l-.144.143.144.144-.143 1.576a.286.286 0 0 0-.287.286c0 .052.016.101.04.144h-.04l-.143.287h2.866l-.143-.287h-.04a.286.286 0 0 0-.247-.43l-.143-1.576.143-.144-.143-.143h.063a.08.08 0 0 0 .08-.08v-.7a.08.08 0 0 0-.08-.08h-.206v.287h-.287v-.287h-.287v.287h-.286v-.287h-.287v.287h-.287v-.287" style="stroke-width:3.51334"/></svg>
